scalable/devices/network-wireless.svg

<svg xmlns="http://www.w3.org/2000/svg" viewBox="0 0 64 64">
    <defs>
        <linearGradient id="a" x1="16" x2="16" y1="30" y2="2" gradientTransform="scale(2)" gradientUnits="userSpaceOnUse">
            <stop offset="0" style="stop-color:#d1d5db"/>
            <stop offset="1" style="stop-color:#e5e7eb"/>
        </linearGradient>
    </defs>
    <rect width="56" height="56" x="4" y="4" ry="12" style="stroke-width:2;fill:url(#a)"/>
    <path d="M32.018 18a22.95 22.95 0 0 0-18.331 9.143.917.917 0 1 0 1.466 1.104c8.448-11.214 25.282-11.214 33.728 0a.92.92 0 0 0 1.468-1.104A22.95 22.95 0 0 0 32.018 18m0 7.345a15.61 15.61 0 0 0-12.787 6.657.92.92 0 0 0 .226 1.28.916.916 0 0 0 1.277-.226 13.773 13.773 0 0 1 22.567 0 .918.918 0 1 0 1.503-1.054 15.61 15.61 0 0 0-12.786-6.657m0 7.345a8.27 8.27 0 0 0-6.769 3.527.918.918 0 0 0 1.504 1.053 6.43 6.43 0 0 1 5.265-2.743 6.43 6.43 0 0 1 5.264 2.743.919.919 0 0 0 1.504-1.053 8.26 8.26 0 0 0-6.768-3.527m0 7.346c-2.121 0-3.446 2.294-2.386 4.132a2.75 2.75 0 0 0 2.386 1.377c2.119 0 3.445-2.295 2.385-4.132a2.75 2.75 0 0 0-2.385-1.377" style="paint-order:fill;stroke:#0284c7;fill:#0284c7"/>
</svg>

<?xml version="1.0" encoding="utf-8"?>
<svg xmlns="http://www.w3.org/2000/svg" viewBox="0 0 64 64" xmlns:bx="https://boxy-svg.com">
  <defs>
    <linearGradient id="a" x1="16" x2="16" y1="30" y2="2" gradientTransform="scale(2)" gradientUnits="userSpaceOnUse">
      <stop offset="0" style="stop-color:#d1d5db"/>
      <stop offset="1" style="stop-color:#e5e7eb"/>
    </linearGradient>
    <linearGradient id="gradient-0" bx:pinned="true">
      <stop offset="0" style="stop-color: rgba(2, 132, 199, 0.8);"/>
      <stop offset="1" style="stop-color: rgb(2, 132, 199);"/>
    </linearGradient>
  </defs>
  <rect width="56" height="56" x="4" y="4" ry="12" style="stroke-width:2;fill:url(#a)"/>
  <path d="M 32.018 18 C 24.811 18.001 18.024 21.386 13.687 27.143 C 13.26 27.707 13.607 28.52 14.308 28.606 C 14.634 28.646 14.957 28.509 15.153 28.247 C 23.601 17.033 40.435 17.033 48.881 28.247 C 49.341 28.786 50.212 28.624 50.448 27.957 C 50.544 27.684 50.507 27.382 50.349 27.143 C 46.012 21.386 39.225 18.001 32.018 18 M 32.018 25.345 C 26.925 25.345 22.152 27.83 19.231 32.002 C 18.941 32.418 19.041 32.991 19.457 33.282 C 19.873 33.573 20.444 33.471 20.734 33.056 C 23.311 29.374 27.523 27.181 32.018 27.181 C 36.512 27.181 40.722 29.375 43.301 33.056 C 43.693 33.645 44.574 33.588 44.888 32.954 C 45.041 32.647 45.007 32.279 44.804 32.002 C 41.883 27.83 37.111 25.345 32.018 25.345 M 32.018 32.69 C 29.321 32.691 26.796 34.007 25.249 36.217 C 24.858 36.805 25.25 37.596 25.955 37.641 C 26.267 37.662 26.567 37.522 26.753 37.27 C 27.955 35.552 29.92 34.528 32.018 34.527 C 34.115 34.528 36.081 35.552 37.282 37.27 C 37.702 37.839 38.579 37.74 38.863 37.092 C 38.987 36.807 38.958 36.477 38.786 36.217 C 37.239 34.007 34.714 32.691 32.018 32.69 M 32.018 40.036 C 29.897 40.036 28.572 42.33 29.632 44.168 C 30.124 45.02 31.033 45.545 32.018 45.545 C 34.137 45.545 35.463 43.25 34.403 41.413 C 33.911 40.56 33.001 40.036 32.018 40.036" style="paint-order: fill; stroke: rgb(2, 132, 199); fill: rgb(2, 132, 199);"/>
</svg>
